X: 1
T: Vackra Norskan
R: g\aangl\aat, snoa
Z: John Chambers <jc@trillian.mit.edu>
M: C
L: 1/16
K: A
|: E2 \
| "A"A3c e2e2 | "D"f2fd "A"c2ce | a2ae cdcA | cdcA "E7"B4 \
|  "A"A3c e2e2 | "D"f2fd "A"c2ce | a2ae cdcA | "E7"B2G2 "A"A2 :|
|: E2 \
| "A"A,3C E2E2 | "D"F2FD "A"CA,CE | "D"F2FD "A"CA,CE \
| "D"F2FD "A"CA,CE | A3E CDCA, | CDCA, "E7"B,4 |
| "A"C2CA, "E7"B,4 | "A"C2CA, "E7"B,4 | "A"A,3C E2E2 \
| "D"F2FD "A"C2CE | A2AE CDCA, |[M:3/4][L:1/16] "E7"B,2CB, "A"A,4- A,2 :|
